; generated by Slic3r 1.3.0 on 2025-04-08 at 12:17:35

; external perimeters extrusion width = 0.55mm (4.37mm^3/s)
; perimeters extrusion width = 0.70mm (11.44mm^3/s)
; infill extrusion width = 0.63mm (13.45mm^3/s)
; solid infill extrusion width = 0.70mm (3.81mm^3/s)
; top infill extrusion width = 0.70mm (2.86mm^3/s)

M107
M104 S200 ; set temperature
G28 ; home all axes
G1 Z5 F5000 ; lift nozzle

; Filament gcode

M109 S200 ; set temperature and wait for it to be reached
G21 ; set units to millimeters
G90 ; use absolute coordinates
M82 ; use absolute distances for extrusion
G92 E0
G1 Z0.350 F7800.000
G1 E-2.00000 F2400.00000
G92 E0
G1 X79.915 Y80.753 F7800.000
G1 E2.00000 F2400.00000
G1 F1800
G1 X81.668 Y79.274 E2.07096
G1 X83.820 Y78.481 E2.14192
G1 X85.000 Y78.375 E2.17858
G1 X115.000 Y78.375 E3.10682
G1 X117.259 Y78.772 E3.17778
G1 X119.247 Y79.915 E3.24874
G1 X120.726 Y81.668 E3.31970
G1 X121.519 Y83.820 E3.39066
G1 X121.625 Y85.000 E3.42732
G1 X121.625 Y115.000 E4.35555
G1 X121.228 Y117.259 E4.42652
G1 X120.085 Y119.247 E4.49748
G1 X118.332 Y120.726 E4.56844
G1 X116.180 Y121.519 E4.63940
G1 X115.000 Y121.625 E4.67606
G1 X85.000 Y121.625 E5.60429
G1 X82.741 Y121.228 E5.67526
G1 X80.753 Y120.085 E5.74622
G1 X79.274 Y118.332 E5.81718
G1 X78.481 Y116.180 E5.88814
G1 X78.375 Y115.000 E5.92479
G1 X78.375 Y85.000 E6.85303
G1 X78.772 Y82.741 E6.92400
G1 X79.878 Y80.818 E6.99264
G1 E4.99264 F2400.00000
G92 E0
G1 X88.400 Y113.400 F7800.000
G1 E2.00000 F2400.00000
G1 F1800
G1 X86.600 Y113.400 E2.05571
G1 X86.600 Y111.600 E2.11142
G1 X88.400 Y111.600 E2.16712
G1 X88.400 Y113.325 E2.22051
G1 X89.025 Y114.025 F7800.000
G1 F1800
G1 X85.975 Y114.025 E2.31489
G1 X85.975 Y110.975 E2.40927
G1 X89.025 Y110.975 E2.50365
G1 X89.025 Y113.950 E2.59570
G1 X89.650 Y114.650 F7800.000
G1 F1800
G1 X85.350 Y114.650 E2.72875
G1 X85.350 Y110.350 E2.86180
G1 X89.650 Y110.350 E2.99485
G1 X89.650 Y114.575 E3.12557
G1 X89.167 Y114.521 F7800.000
G1 E1.12557 F2400.00000
G92 E0
G1 X87.532 Y113.018 F7800.000
G1 E2.00000 F2400.00000
G1 F1800
G1 X88.018 Y112.532 E2.02553
G1 X88.018 Y111.982 E2.04597
G1 X87.508 Y111.982 E2.06490
G1 X86.982 Y112.508 E2.09257
G1 X86.982 Y112.468 E2.09408
G1 X87.022 Y112.468 E2.09560
G1 E0.09560 F2400.00000
G92 E0
G1 X111.600 Y113.400 F7800.000
G1 E2.00000 F2400.00000
G1 F1800
G1 X111.600 Y111.600 E2.05571
G1 X113.400 Y111.600 E2.11142
G1 X113.400 Y113.400 E2.16712
G1 X111.675 Y113.400 E2.22051
G1 X110.975 Y114.025 F7800.000
G1 F1800
G1 X110.975 Y110.975 E2.31489
G1 X114.025 Y110.975 E2.40927
G1 X114.025 Y114.025 E2.50365
G1 X111.050 Y114.025 E2.59570
G1 X110.350 Y114.650 F7800.000
G1 F1800
G1 X110.350 Y110.350 E2.72875
G1 X114.650 Y110.350 E2.86180
G1 X114.650 Y114.650 E2.99485
G1 X110.425 Y114.650 E3.12557
G1 X110.479 Y114.167 F7800.000
G1 E1.12557 F2400.00000
G92 E0
G1 X112.532 Y113.018 F7800.000
G1 E2.00000 F2400.00000
G1 F1800
G1 X113.018 Y112.532 E2.02553
G1 X113.018 Y111.982 E2.04597
G1 X112.508 Y111.982 E2.06490
G1 X111.982 Y112.508 E2.09257
G1 X111.982 Y112.468 E2.09408
G1 X112.022 Y112.468 E2.09560
G1 E0.09560 F2400.00000
G92 E0
G1 X111.600 Y88.400 F7800.000
G1 E2.00000 F2400.00000
G1 F1800
G1 X111.600 Y86.600 E2.05571
G1 X113.400 Y86.600 E2.11142
G1 X113.400 Y88.400 E2.16712
G1 X111.675 Y88.400 E2.22051
G1 X110.975 Y89.025 F7800.000
G1 F1800
G1 X110.975 Y85.975 E2.31489
G1 X114.025 Y85.975 E2.40927
G1 X114.025 Y89.025 E2.50365
G1 X111.050 Y89.025 E2.59570
G1 X110.350 Y89.650 F7800.000
G1 F1800
G1 X110.350 Y85.350 E2.72875
G1 X114.650 Y85.350 E2.86180
G1 X114.650 Y89.650 E2.99485
G1 X110.425 Y89.650 E3.12557
G1 X110.479 Y89.167 F7800.000
G1 E1.12557 F2400.00000
G92 E0
G1 X112.532 Y88.018 F7800.000
G1 E2.00000 F2400.00000
G1 F1800
G1 X113.018 Y87.532 E2.02553
G1 X113.018 Y86.982 E2.04597
G1 X112.508 Y86.982 E2.06490
G1 X111.982 Y87.508 E2.09257
G1 X111.982 Y87.468 E2.09408
G1 X112.022 Y87.468 E2.09560
G1 E0.09560 F2400.00000
G92 E0
G1 X88.400 Y88.400 F7800.000
G1 E2.00000 F2400.00000
G1 F1800
G1 X86.600 Y88.400 E2.05571
G1 X86.600 Y86.600 E2.11142
G1 X88.400 Y86.600 E2.16712
G1 X88.400 Y88.325 E2.22051
G1 X89.025 Y89.025 F7800.000
G1 F1800
G1 X85.975 Y89.025 E2.31489
G1 X85.975 Y85.975 E2.40927
G1 X89.025 Y85.975 E2.50365
G1 X89.025 Y88.950 E2.59570
G1 X89.650 Y89.650 F7800.000
G1 F1800
G1 X85.350 Y89.650 E2.72875
G1 X85.350 Y85.350 E2.86180
G1 X89.650 Y85.350 E2.99485
G1 X89.650 Y89.575 E3.12557
G1 X89.167 Y89.521 F7800.000
G1 E1.12557 F2400.00000
G92 E0
G1 X87.532 Y88.018 F7800.000
G1 E2.00000 F2400.00000
G1 F1800
G1 X88.018 Y87.532 E2.02553
G1 X88.018 Y86.982 E2.04597
G1 X87.508 Y86.982 E2.06490
G1 X86.982 Y87.508 E2.09257
G1 X86.982 Y87.468 E2.09408
G1 X87.022 Y87.468 E2.09560
G1 Z0.650 F7800.000
G1 E0.09560 F2400.00000
G92 E0
G1 X88.529 Y111.471 F7800.000
G1 E2.00000 F2400.00000
G1 F900
G1 X88.529 Y113.529 E2.05550
G1 X86.471 Y113.529 E2.11101
G1 X86.471 Y111.471 E2.16651
G1 X88.454 Y111.471 E2.22000
G1 X89.164 Y110.836 F7800.000
G1 F900
G1 X89.164 Y114.164 E2.30979
G1 X85.836 Y114.164 E2.39959
G1 X85.836 Y110.836 E2.48939
G1 X89.089 Y110.836 E2.57717
G1 X89.725 Y110.275 F7800.000
G1 F900
G1 X89.725 Y114.725 E2.66888
G1 X85.275 Y114.725 E2.76060
G1 X85.275 Y110.275 E2.85231
G1 X89.650 Y110.275 E2.94248
G1 X89.596 Y110.758 F7800.000
G1 X88.140 Y112.354 F7800.000
G1 F1200
G1 X87.646 Y111.860 E2.96512
G1 X86.860 Y111.860 E2.99058
G1 X86.860 Y112.152 E3.00004
G1 X87.848 Y113.140 E3.04529
G1 X87.354 Y113.140 E3.06127
G1 X87.354 Y112.647 E3.07726
G1 E1.07726 F2400.00000
G92 E0
G1 X111.471 Y111.471 F7800.000
G1 E2.00000 F2400.00000
G1 F900
G1 X113.529 Y111.471 E2.05550
G1 X113.529 Y113.529 E2.11101
G1 X111.471 Y113.529 E2.16651
G1 X111.471 Y111.546 E2.22000
G1 X110.836 Y110.836 F7800.000
G1 F900
G1 X114.164 Y110.836 E2.30979
G1 X114.164 Y114.164 E2.39959
G1 X110.836 Y114.164 E2.48939
G1 X110.836 Y110.911 E2.57717
G1 X110.275 Y110.275 F7800.000
G1 F900
G1 X114.725 Y110.275 E2.66888
G1 X114.725 Y114.725 E2.76060
G1 X110.275 Y114.725 E2.85231
G1 X110.275 Y110.350 E2.94248
G1 X110.758 Y110.404 F7800.000
G1 X112.354 Y112.647 F7800.000
G1 F1200
G1 X112.354 Y113.140 E2.95847
G1 X112.848 Y113.140 E2.97446
G1 X111.860 Y112.152 E3.01970
G1 X111.860 Y111.860 E3.02917
G1 X112.646 Y111.860 E3.05462
G1 X113.140 Y112.354 E3.07726
G1 E1.07726 F2400.00000
G92 E0
G1 X111.471 Y88.529 F7800.000
G1 E2.00000 F2400.00000
G1 F900
G1 X111.471 Y86.471 E2.05550
G1 X113.529 Y86.471 E2.11101
G1 X113.529 Y88.529 E2.16651
G1 X111.546 Y88.529 E2.22000
G1 X110.836 Y89.164 F7800.000
G1 F900
G1 X110.836 Y85.836 E2.30979
G1 X114.164 Y85.836 E2.39959
G1 X114.164 Y89.164 E2.48939
G1 X110.911 Y89.164 E2.57717
G1 X110.275 Y89.725 F7800.000
G1 F900
G1 X110.275 Y85.275 E2.66888
G1 X114.725 Y85.275 E2.76060
G1 X114.725 Y89.725 E2.85231
G1 X110.350 Y89.725 E2.94248
G1 X110.404 Y89.242 F7800.000
G1 X112.354 Y87.647 F7800.000
G1 F1200
G1 X112.354 Y88.140 E2.95847
G1 X112.848 Y88.140 E2.97446
G1 X111.860 Y87.152 E3.01970
G1 X111.860 Y86.860 E3.02917
G1 X112.646 Y86.860 E3.05462
G1 X113.140 Y87.354 E3.07726
G1 E1.07726 F2400.00000
G92 E0
G1 X88.529 Y88.529 F7800.000
G1 E2.00000 F2400.00000
G1 F900
G1 X86.471 Y88.529 E2.05550
G1 X86.471 Y86.471 E2.11101
G1 X88.529 Y86.471 E2.16651
G1 X88.529 Y88.454 E2.22000
G1 X89.164 Y89.164 F7800.000
G1 F900
G1 X85.836 Y89.164 E2.30979
G1 X85.836 Y85.836 E2.39959
G1 X89.164 Y85.836 E2.48939
G1 X89.164 Y89.089 E2.57717
G1 X89.725 Y89.725 F7800.000
G1 F900
G1 X85.275 Y89.725 E2.66888
G1 X85.275 Y85.275 E2.76060
G1 X89.725 Y85.275 E2.85232
G1 X89.725 Y89.650 E2.94249
G1 X89.242 Y89.596 F7800.000
G1 X88.140 Y87.354 F7800.000
G1 F1200
G1 X87.646 Y86.860 E2.96513
G1 X86.860 Y86.860 E2.99058
G1 X86.860 Y87.152 E3.00004
G1 X87.848 Y88.140 E3.04529
G1 X87.354 Y88.140 E3.06127
G1 X87.354 Y87.647 E3.07726
G1 Z0.950 F7800.000
G1 E1.07726 F2400.00000
G92 E0
G1 X88.529 Y111.471 F7800.000
G1 E2.00000 F2400.00000
G1 F900
G1 X88.529 Y113.529 E2.05550
G1 X86.471 Y113.529 E2.11101
G1 X86.471 Y111.471 E2.16651
G1 X88.454 Y111.471 E2.22000
G1 X89.164 Y110.836 F7800.000
G1 F900
G1 X89.164 Y114.164 E2.30979
G1 X85.836 Y114.164 E2.39959
G1 X85.836 Y110.836 E2.48939
G1 X89.089 Y110.836 E2.57717
G1 X89.725 Y110.275 F7800.000
G1 F900
G1 X89.725 Y114.725 E2.66888
G1 X85.275 Y114.725 E2.76060
G1 X85.275 Y110.275 E2.85231
G1 X89.650 Y110.275 E2.94248
G1 X89.596 Y110.758 F7800.000
G1 X87.353 Y112.354 F7800.000
G1 F1200
G1 X86.860 Y112.354 E2.95847
G1 X86.860 Y112.848 E2.97446
G1 X87.848 Y111.860 E3.01970
G1 X88.140 Y111.860 E3.02917
G1 X88.140 Y112.646 E3.05462
G1 X87.646 Y113.140 E3.07726
G1 E1.07726 F2400.00000
G92 E0
G1 X111.471 Y111.471 F7800.000
G1 E2.00000 F2400.00000
G1 F900
G1 X113.529 Y111.471 E2.05550
G1 X113.529 Y113.529 E2.11101
G1 X111.471 Y113.529 E2.16651
G1 X111.471 Y111.546 E2.22000
G1 X110.836 Y110.836 F7800.000
G1 F900
G1 X114.164 Y110.836 E2.30979
G1 X114.164 Y114.164 E2.39959
G1 X110.836 Y114.164 E2.48939
G1 X110.836 Y110.911 E2.57717
G1 X110.275 Y110.275 F7800.000
G1 F900
G1 X114.725 Y110.275 E2.66888
G1 X114.725 Y114.725 E2.76060
G1 X110.275 Y114.725 E2.85231
G1 X110.275 Y110.350 E2.94248
G1 X110.758 Y110.404 F7800.000
G1 X112.353 Y112.354 F7800.000
G1 F1200
G1 X111.860 Y112.354 E2.95847
G1 X111.860 Y112.848 E2.97446
G1 X112.848 Y111.860 E3.01970
G1 X113.140 Y111.860 E3.02917
G1 X113.140 Y112.646 E3.05462
G1 X112.646 Y113.140 E3.07726
G1 E1.07726 F2400.00000
G92 E0
G1 X111.471 Y88.529 F7800.000
G1 E2.00000 F2400.00000
G1 F900
G1 X111.471 Y86.471 E2.05550
G1 X113.529 Y86.471 E2.11101
G1 X113.529 Y88.529 E2.16651
G1 X111.546 Y88.529 E2.22000
G1 X110.836 Y89.164 F7800.000
G1 F900
G1 X110.836 Y85.836 E2.30979
G1 X114.164 Y85.836 E2.39959
G1 X114.164 Y89.164 E2.48939
G1 X110.911 Y89.164 E2.57717
G1 X110.275 Y89.725 F7800.000
G1 F900
G1 X110.275 Y85.275 E2.66888
G1 X114.725 Y85.275 E2.76060
G1 X114.725 Y89.725 E2.85231
G1 X110.350 Y89.725 E2.94248
G1 X110.404 Y89.242 F7800.000
G1 X112.646 Y88.140 F7800.000
G1 F1200
G1 X113.140 Y87.646 E2.96513
G1 X113.140 Y86.860 E2.99058
G1 X112.848 Y86.860 E3.00004
G1 X111.860 Y87.848 E3.04529
G1 X111.860 Y87.354 E3.06127
G1 X112.353 Y87.354 E3.07726
G1 E1.07726 F2400.00000
G92 E0
G1 X88.529 Y88.529 F7800.000
G1 E2.00000 F2400.00000
G1 F900
G1 X86.471 Y88.529 E2.05550
G1 X86.471 Y86.471 E2.11101
G1 X88.529 Y86.471 E2.16651
G1 X88.529 Y88.454 E2.22000
G1 X89.164 Y89.164 F7800.000
G1 F900
G1 X85.836 Y89.164 E2.30979
G1 X85.836 Y85.836 E2.39959
G1 X89.164 Y85.836 E2.48939
G1 X89.164 Y89.089 E2.57717
G1 X89.725 Y89.725 F7800.000
G1 F900
G1 X85.275 Y89.725 E2.66888
G1 X85.275 Y85.275 E2.76060
G1 X89.725 Y85.275 E2.85231
G1 X89.725 Y89.650 E2.94249
G1 X89.242 Y89.596 F7800.000
G1 X87.646 Y88.140 F7800.000
G1 F1200
G1 X88.140 Y87.646 E2.96513
G1 X88.140 Y86.860 E2.99058
G1 X87.848 Y86.860 E3.00004
G1 X86.860 Y87.848 E3.04529
G1 X86.860 Y87.354 E3.06127
G1 X87.353 Y87.354 E3.07726
M106 S234.6
G1 Z1.250 F7800.000
G1 E1.07726 F2400.00000
G92 E0
G1 X88.529 Y111.471 F7800.000
G1 E2.00000 F2400.00000
G1 F900
G1 X88.529 Y113.529 E2.05550
G1 X86.471 Y113.529 E2.11101
G1 X86.471 Y111.471 E2.16651
G1 X88.454 Y111.471 E2.22000
G1 X89.164 Y110.836 F7800.000
G1 F900
G1 X89.164 Y114.164 E2.30979
G1 X85.836 Y114.164 E2.39959
G1 X85.836 Y110.836 E2.48939
G1 X89.089 Y110.836 E2.57717
G1 X89.725 Y110.275 F7800.000
G1 F900
G1 X89.725 Y114.725 E2.66888
G1 X85.275 Y114.725 E2.76060
G1 X85.275 Y110.275 E2.85231
G1 X89.650 Y110.275 E2.94248
G1 X89.654 Y110.541 F7800.000
G1 X88.140 Y112.354 F7800.000
G1 F1200
G1 X87.646 Y111.860 E2.96512
G1 X86.860 Y111.860 E2.99057
G1 X86.860 Y112.152 E3.00004
G1 X87.848 Y113.140 E3.04528
G1 X87.354 Y113.140 E3.06127
G1 X87.354 Y112.647 E3.07725
G1 E1.07725 F2400.00000
G92 E0
G1 X111.471 Y111.471 F7800.000
G1 E2.00000 F2400.00000
G1 F900
G1 X113.529 Y111.471 E2.05550
G1 X113.529 Y113.529 E2.11101
G1 X111.471 Y113.529 E2.16651
G1 X111.471 Y111.546 E2.22000
G1 X110.836 Y110.836 F7800.000
G1 F900
G1 X114.164 Y110.836 E2.30979
G1 X114.164 Y114.164 E2.39959
G1 X110.836 Y114.164 E2.48939
G1 X110.836 Y110.911 E2.57717
G1 X110.275 Y110.275 F7800.000
G1 F900
G1 X114.725 Y110.275 E2.66888
G1 X114.725 Y114.725 E2.76060
G1 X110.275 Y114.725 E2.85231
G1 X110.275 Y110.350 E2.94248
G1 X110.758 Y110.404 F7800.000
G1 X112.354 Y112.647 F7800.000
G1 F1200
G1 X112.354 Y113.140 E2.95847
G1 X112.848 Y113.140 E2.97445
G1 X111.860 Y112.152 E3.01969
G1 X111.860 Y111.860 E3.02916
G1 X112.646 Y111.860 E3.05461
G1 X113.140 Y112.354 E3.07725
G1 E1.07725 F2400.00000
G92 E0
G1 X111.471 Y88.529 F7800.000
G1 E2.00000 F2400.00000
G1 F900
G1 X111.471 Y86.471 E2.05550
G1 X113.529 Y86.471 E2.11101
G1 X113.529 Y88.529 E2.16651
G1 X111.546 Y88.529 E2.22000
G1 X110.836 Y89.164 F7800.000
G1 F900
G1 X110.836 Y85.836 E2.30979
G1 X114.164 Y85.836 E2.39959
G1 X114.164 Y89.164 E2.48939
G1 X110.911 Y89.164 E2.57717
G1 X110.275 Y89.725 F7800.000
G1 F900
G1 X110.275 Y85.275 E2.66888
G1 X114.725 Y85.275 E2.76060
G1 X114.725 Y89.725 E2.85231
G1 X110.350 Y89.725 E2.94248
G1 X110.404 Y89.242 F7800.000
G1 X112.354 Y87.647 F7800.000
G1 F1200
G1 X112.354 Y88.140 E2.95847
G1 X112.848 Y88.140 E2.97446
G1 X111.860 Y87.152 E3.01969
G1 X111.860 Y86.860 E3.02916
G1 X112.646 Y86.860 E3.05461
G1 X113.140 Y87.354 E3.07725
G1 E1.07725 F2400.00000
G92 E0
G1 X88.529 Y88.529 F7800.000
G1 E2.00000 F2400.00000
G1 F900
G1 X86.471 Y88.529 E2.05550
G1 X86.471 Y86.471 E2.11101
G1 X88.529 Y86.471 E2.16651
G1 X88.529 Y88.454 E2.22000
G1 X89.164 Y89.164 F7800.000
G1 F900
G1 X85.836 Y89.164 E2.30979
G1 X85.836 Y85.836 E2.39959
G1 X89.164 Y85.836 E2.48939
G1 X89.164 Y89.089 E2.57717
G1 X89.725 Y89.725 F7800.000
G1 F900
G1 X85.275 Y89.725 E2.66888
G1 X85.275 Y85.275 E2.76060
G1 X89.725 Y85.275 E2.85232
G1 X89.725 Y89.650 E2.94249
G1 X89.292 Y89.475 F7800.000
G1 X88.140 Y87.354 F7800.000
G1 F1200
G1 X87.646 Y86.860 E2.96513
G1 X86.860 Y86.860 E2.99058
G1 X86.860 Y87.152 E3.00004
G1 X87.848 Y88.140 E3.04528
G1 X87.354 Y88.140 E3.06127
G1 X87.354 Y87.647 E3.07725
G1 Z1.550 F7800.000
G1 E1.07725 F2400.00000
G92 E0
G1 X88.529 Y111.471 F7800.000
G1 E2.00000 F2400.00000
G1 F900
G1 X88.529 Y113.529 E2.05550
G1 X86.471 Y113.529 E2.11101
G1 X86.471 Y111.471 E2.16651
G1 X88.454 Y111.471 E2.22000
G1 X89.164 Y110.836 F7800.000
G1 F900
G1 X89.164 Y114.164 E2.30979
G1 X85.836 Y114.164 E2.39959
G1 X85.836 Y110.836 E2.48939
G1 X89.089 Y110.836 E2.57717
G1 X89.725 Y110.275 F7800.000
G1 F900
G1 X89.725 Y114.725 E2.66888
G1 X85.275 Y114.725 E2.76060
G1 X85.275 Y110.275 E2.85231
G1 X89.650 Y110.275 E2.94248
G1 X89.615 Y110.686 F7800.000
G1 X87.353 Y112.354 F7800.000
G1 F1200
G1 X86.860 Y112.354 E2.95847
G1 X86.860 Y112.848 E2.97445
G1 X87.848 Y111.860 E3.01969
G1 X88.140 Y111.860 E3.02916
G1 X88.140 Y112.646 E3.05461
G1 X87.646 Y113.140 E3.07725
G1 E1.07725 F2400.00000
G92 E0
G1 X111.471 Y111.471 F7800.000
G1 E2.00000 F2400.00000
G1 F900
G1 X113.529 Y111.471 E2.05550
G1 X113.529 Y113.529 E2.11101
G1 X111.471 Y113.529 E2.16651
G1 X111.471 Y111.546 E2.22000
G1 X110.836 Y110.836 F7800.000
G1 F900
G1 X114.164 Y110.836 E2.30979
G1 X114.164 Y114.164 E2.39959
G1 X110.836 Y114.164 E2.48939
G1 X110.836 Y110.911 E2.57717
G1 X110.275 Y110.275 F7800.000
G1 F900
G1 X114.725 Y110.275 E2.66888
G1 X114.725 Y114.725 E2.76060
G1 X110.275 Y114.725 E2.85231
G1 X110.275 Y110.350 E2.94248
G1 X110.758 Y110.404 F7800.000
G1 X112.353 Y112.354 F7800.000
G1 F1200
G1 X111.860 Y112.354 E2.95847
G1 X111.860 Y112.848 E2.97445
G1 X112.848 Y111.860 E3.01969
G1 X113.140 Y111.860 E3.02916
G1 X113.140 Y112.646 E3.05461
G1 X112.646 Y113.140 E3.07725
G1 E1.07725 F2400.00000
G92 E0
G1 X111.471 Y88.529 F7800.000
G1 E2.00000 F2400.00000
G1 F900
G1 X111.471 Y86.471 E2.05550
G1 X113.529 Y86.471 E2.11101
G1 X113.529 Y88.529 E2.16651
G1 X111.546 Y88.529 E2.22000
G1 X110.836 Y89.164 F7800.000
G1 F900
G1 X110.836 Y85.836 E2.30979
G1 X114.164 Y85.836 E2.39959
G1 X114.164 Y89.164 E2.48939
G1 X110.911 Y89.164 E2.57717
G1 X110.275 Y89.725 F7800.000
G1 F900
G1 X110.275 Y85.275 E2.66888
G1 X114.725 Y85.275 E2.76060
G1 X114.725 Y89.725 E2.85231
G1 X110.350 Y89.725 E2.94248
G1 X110.404 Y89.242 F7800.000
